X:1

T:Barrack Hill [1]

M:6/8

L:1/8

R:Single Jig

S:O’Neill – Dance Music of Ireland: 1001 Gems (1907), No. 410

Z:AK/Fiddler’s Companion

K:A Dorian

e2A A2f|e2d Bcd|e2A A2B|G2A Bcd|e2A A2f|e2d Bcd|e2d g2B|A3 A3:|

|:e2d efg|a2b g2e|d2e d2B|d2e dcB|1 e2d efg|a2b g2e|d2B g2B|A3 A2:|2

e2d e2f|g2a b2a|g2e d2B|A2a agf||

 

BARRACK HILL [2]. AKA and see "The Breach of Killiecranky." Reel.

 

BARRACK HILL [3]. Irish, Slide. D Major. Standard tuning. AABB. Source for notated version: set dance music recorded at Na Píobairí Uilleann, mid-1980’s [Taylor]. Taylor (Music for the Sets: Yellow Book), 1995; pg. 36.

 

BARRACK HILL [4]. Irish, Slide. G Major. Standard tuning. AABB. Source for notated version: set dance music recorded at Na Píobairí Uilleann, mid-1980’s [Taylor]. Taylor (Music for the Sets: Yellow Book), 1995; pg. 36.

                       


BARRACK STREET BOYS, THE. AKA and see "Birnie‑boozle," "Braes of Tullymet," "Brides Away," "The Bride to Bed," "The British Naggon," "Caledonean Hunt," "Cheese It," "Corney is Coming," "Crawford's Reel [1]," "D. Dick's Favourite," "I saw her," "Kelly's Reel," “The Lumberjack's Reel,” "Miss Grant of Grant [1],” "Miss Wilson," "Merry Bits of Timber," "My Love is in America," "My Love is in the House [1],” "Shannon Breeze [1]," "Six Mile Bridge.”

           

BARRAIDH NA G-CRAOBH. AKA and see "The Tops of the Branches."

           

BARRANNA MORA CHLANN DONNCHA. See "Humours of Whiskey [2]."

           

BARREL OF WASH, THE (An Bairille Braiche). Irish, Reel. D Major. Standard tuning. AABB. Source for notated version: from fiddler Paddy Nugent (Pomeroy, County Tyrone) via the mid-20th century collection of Liam Donnolly (County Tyrone & Belfast) [Breathnach]. Breathnach (CRÉ IV), 1996; No. 147, pg. 71.

           

BARREL O’RAFFERTY. See “Barrel Rafferty.”

           

BARREL RAFFERTY’S (JIG). Irish, Jig. A Minor. Standard tuning. AABB. The title comes from the nickname of the flute-playing father of East Galway/New York flute player Mike Rafferty, whose lung capacity would fill a barrel. Sources for notated versions: whistle player Tom Gaffey (east County Galway) [Breathnach]; New Jersey flute player Mike Rafferty, born in Ballinakill, Co. Galway, in 1926 [Harker]. Breathnach (CRÉ II), 1976; No. 82, pg. 44 (appears as untitled single jig). Black (Music’s the Very Best Thing), 1996; No. 321, pg. 172. Harker (300 Tunes from Mike Rafferty), 2005; No. 170, pg. 53. Kells Music 9509, Mike & Mary Rafferty – “The Dangerous Reel” (1996).

